src/assets/img/logo.svg

<svg fill="none" height="71" viewBox="0 0 166 71" width="166" xmlns="http://www.w3.org/2000/svg" xmlns:xlink="http://www.w3.org/1999/xlink"><linearGradient id="a" gradientUnits="userSpaceOnUse" x1="121.915" x2="145.221" y1="25.2507" y2="39.2121"><stop offset="0"/><stop offset="1" stop-color="#1c69ff"/></linearGradient><linearGradient id="b" gradientUnits="userSpaceOnUse" x1="115.707" x2="131.454" y1="42.5173" y2="17.9142"><stop offset="0" stop-color="#d400f7"/><stop offset=".997707" stop-color="#115dd0"/></linearGradient><linearGradient id="c" gradientUnits="userSpaceOnUse" x1="120.125" x2="124.828" y1="37.9763" y2="53.9413"><stop offset="0"/><stop offset="1" stop-color="#e22fff"/></linearGradient><clipPath id="d"><path d="m.5.450195h165.321v70.1001h-165.321z"/></clipPath><g clip-path="url(#d)"><path d="m3.33399 29.8109h3.91934v17.7878h11.03447v3.3163h-14.95381zm31.46781 13.1449c0 .2612-.0201.6331-.0603 1.1155h-12.6323c.2211 1.1858.7939 2.1305 1.7184 2.8339.9447.6834 2.1105 1.0251 3.4973 1.0251 1.7687 0 3.2259-.5829 4.3716-1.7486l2.02 2.3214c-.7236.8643-1.6381 1.5175-2.7436 1.9597-1.1054.4422-2.3516.6633-3.7384.6633-1.7688 0-3.3265-.3518-4.6731-1.0552-1.3467-.7035-2.3918-1.6783-3.1355-2.9245-.7236-1.2662-1.0853-2.6933-1.0853-4.2811 0-1.5677.3517-2.9747 1.0552-4.2208.7235-1.2663 1.7185-2.2511 2.9847-2.9546 1.2663-.7035 2.6933-1.0552 4.2811-1.0552 1.5678 0 2.9647.3517 4.1907 1.0552 1.2462.6834 2.2109 1.6582 2.8943 2.9244.7035 1.2462 1.0552 2.6933 1.0552 4.3415zm-8.1402-5.3062c-1.2059 0-2.231.3617-3.0751 1.0853-.8241.7035-1.3266 1.6482-1.5075 2.834h9.1351c-.1608-1.1657-.6532-2.1104-1.4773-2.834s-1.8491-1.0853-3.0752-1.0853zm16.263-3.0149c2.3717 0 4.1806.5728 5.4267 1.7185 1.2663 1.1255 1.8994 2.834 1.8994 5.1253v9.4365h-3.5575v-1.9596c-.4623.7034-1.1256 1.2461-1.9899 1.628-.8441.3618-1.8692.5427-3.0751.5427-1.206 0-2.2612-.201-3.1657-.603-.9044-.4221-1.6079-.9949-2.1104-1.7185-.4824-.7436-.7236-1.5778-.7236-2.5023 0-1.4472.5327-2.6029 1.5979-3.4671 1.0854-.8844 2.7838-1.3266 5.0952-1.3266h4.1605v-.2412c0-1.1255-.3417-1.9898-1.025-2.5928-.6633-.603-1.6582-.9044-2.9848-.9044-.9044 0-1.7988.1407-2.6832.422-.8643.2814-1.5979.6734-2.2009 1.1758l-1.4773-2.7435c.8442-.6432 1.8592-1.1356 3.0451-1.4773 1.1858-.3417 2.442-.5125 3.7686-.5125zm-.5126 13.7478c.9447 0 1.7788-.211 2.5024-.6331.7437-.4422 1.2662-1.0652 1.5677-1.8692v-1.8692h-3.8892c-2.1707 0-3.256.7135-3.256 2.1405 0 .6834.2713 1.2261.814 1.6281.5427.4019 1.2964.6029 2.2611.6029zm27.3843-19.8379v22.3704h-3.6178v-2.0802c-.6231.7637-1.3969 1.3366-2.3215 1.7185-.9044.3818-1.9094.5728-3.0149.5728-1.5476 0-2.9445-.3417-4.1906-1.0251-1.2261-.6834-2.1909-1.6481-2.8943-2.8943-.7035-1.2662-1.0552-2.7134-1.0552-4.3414s.3517-3.0651 1.0552-4.3113c.7034-1.2461 1.6682-2.2109 2.8943-2.8943 1.2461-.6833 2.643-1.025 4.1906-1.025 1.0653 0 2.0401.1809 2.9245.5427.8843.3617 1.6381.9044 2.2611 1.628v-8.2608zm-8.5019 19.3556c.9044 0 1.7185-.201 2.442-.603.7236-.4221 1.2964-1.015 1.7185-1.7788s.6331-1.6481.6331-2.6531-.211-1.8893-.6331-2.6531-.9949-1.3466-1.7185-1.7486c-.7235-.4221-1.5376-.6331-2.442-.6331-.9045 0-1.7185.211-2.4421.6331-.7235.402-1.2964.9848-1.7185 1.7486-.422.7638-.6331 1.6481-.6331 2.6531s.2111 1.8893.6331 2.6531c.4221.7638.995 1.3567 1.7185 1.7788.7236.402 1.5376.603 2.4421.603zm21.6626 3.3163c-2.9144 0-5.1856-.814-6.8136-2.442-1.6281-1.6482-2.4421-3.9998-2.4421-7.0548v-11.9088h3.9194v11.758c0 4.1404 1.7888 6.2107 5.3665 6.2107 3.5575 0 5.3363-2.0703 5.3363-6.2107v-11.758h3.859v11.9088c0 3.055-.814 5.4066-2.442 7.0548-1.6079 1.628-3.8691 2.442-6.7835 2.442zm26.51-.3015-5.729-8.0195-5.6675 8.0195h-4.462l7.8385-10.7631-7.4164-10.341h4.4318l5.3966 7.507 5.336-7.507h4.251l-7.386 10.1903 7.929 10.9138z" fill="#fff"/><g stroke-linecap="round" stroke-width="4.52813"><path d="m145.222 38.7472-23.25-13.3978" stroke="url(#a)"/><path d="m122.068 52.3789 23.271-13.4355" stroke="url(#b)"/><path d="m122.068 52.3787.01-11.9698" stroke="url(#c)"/></g></g></svg>

<svg width="166" height="71" viewBox="0 0 166 71" fill="none" xmlns="http://www.w3.org/2000/svg">
<g clip-path="url(#clip0)">
<path d="M3.33399 29.8109H7.25333V47.5987H18.2878V50.915H3.33399V29.8109ZM34.8018 42.9558C34.8018 43.217 34.7817 43.5889 34.7415 44.0713H22.1092C22.3303 45.2571 22.9031 46.2018 23.8276 46.9052C24.7723 47.5886 25.9381 47.9303 27.3249 47.9303C29.0936 47.9303 30.5508 47.3474 31.6965 46.1817L33.7165 48.5031C32.9929 49.3674 32.0784 50.0206 30.9729 50.4628C29.8675 50.905 28.6213 51.1261 27.2345 51.1261C25.4657 51.1261 23.908 50.7743 22.5614 50.0709C21.2147 49.3674 20.1696 48.3926 19.4259 47.1464C18.7023 45.8802 18.3406 44.4531 18.3406 42.8653C18.3406 41.2976 18.6923 39.8906 19.3958 38.6445C20.1193 37.3782 21.1143 36.3934 22.3805 35.6899C23.6468 34.9864 25.0738 34.6347 26.6616 34.6347C28.2294 34.6347 29.6263 34.9864 30.8523 35.6899C32.0985 36.3733 33.0632 37.3481 33.7466 38.6143C34.4501 39.8605 34.8018 41.3076 34.8018 42.9558ZM26.6616 37.6496C25.4557 37.6496 24.4306 38.0113 23.5865 38.7349C22.7624 39.4384 22.2599 40.3831 22.079 41.5689H31.2141C31.0533 40.4032 30.5609 39.4585 29.7368 38.7349C28.9127 38.0113 27.8877 37.6496 26.6616 37.6496ZM42.9246 34.6347C45.2963 34.6347 47.1052 35.2075 48.3513 36.3532C49.6176 37.4787 50.2507 39.1872 50.2507 41.4785V50.915H46.6932V48.9554C46.2309 49.6588 45.5676 50.2015 44.7033 50.5834C43.8592 50.9452 42.8341 51.1261 41.6282 51.1261C40.4222 51.1261 39.367 50.9251 38.4625 50.5231C37.5581 50.101 36.8546 49.5282 36.3521 48.8046C35.8697 48.061 35.6285 47.2268 35.6285 46.3023C35.6285 44.8551 36.1612 43.6994 37.2264 42.8352C38.3118 41.9508 40.0102 41.5086 42.3216 41.5086H46.4821V41.2674C46.4821 40.1419 46.1404 39.2776 45.4571 38.6746C44.7938 38.0716 43.7989 37.7702 42.4723 37.7702C41.5679 37.7702 40.6735 37.9109 39.7891 38.1922C38.9248 38.4736 38.1912 38.8656 37.5882 39.368L36.1109 36.6245C36.9551 35.9813 37.9701 35.4889 39.156 35.1472C40.3418 34.8055 41.598 34.6347 42.9246 34.6347ZM42.412 48.3825C43.3567 48.3825 44.1908 48.1715 44.9144 47.7494C45.6581 47.3072 46.1806 46.6842 46.4821 45.8802V44.011H42.5929C40.4222 44.011 39.3369 44.7245 39.3369 46.1515C39.3369 46.8349 39.6082 47.3776 40.1509 47.7796C40.6936 48.1815 41.4473 48.3825 42.412 48.3825ZM69.7963 28.5446V50.915H66.1785V48.8348C65.5554 49.5985 64.7816 50.1714 63.857 50.5533C62.9526 50.9351 61.9476 51.1261 60.8421 51.1261C59.2945 51.1261 57.8976 50.7844 56.6515 50.101C55.4254 49.4176 54.4606 48.4529 53.7572 47.2067C53.0537 45.9405 52.702 44.4933 52.702 42.8653C52.702 41.2373 53.0537 39.8002 53.7572 38.554C54.4606 37.3079 55.4254 36.3431 56.6515 35.6597C57.8976 34.9764 59.2945 34.6347 60.8421 34.6347C61.9074 34.6347 62.8822 34.8156 63.7666 35.1774C64.6509 35.5391 65.4047 36.0818 66.0277 36.8054V28.5446H69.7963ZM61.2944 47.9002C62.1988 47.9002 63.0129 47.6992 63.7364 47.2972C64.46 46.8751 65.0328 46.2822 65.4549 45.5184C65.877 44.7546 66.088 43.8703 66.088 42.8653C66.088 41.8603 65.877 40.976 65.4549 40.2122C65.0328 39.4484 64.46 38.8656 63.7364 38.4636C63.0129 38.0415 62.1988 37.8305 61.2944 37.8305C60.3899 37.8305 59.5759 38.0415 58.8523 38.4636C58.1288 38.8656 57.5559 39.4484 57.1338 40.2122C56.7118 40.976 56.5007 41.8603 56.5007 42.8653C56.5007 43.8703 56.7118 44.7546 57.1338 45.5184C57.5559 46.2822 58.1288 46.8751 58.8523 47.2972C59.5759 47.6992 60.3899 47.9002 61.2944 47.9002ZM82.957 51.2165C80.0426 51.2165 77.7714 50.4025 76.1434 48.7745C74.5153 47.1263 73.7013 44.7747 73.7013 41.7197V29.8109H77.6207V41.5689C77.6207 45.7093 79.4095 47.7796 82.9872 47.7796C86.5447 47.7796 88.3235 45.7093 88.3235 41.5689V29.8109H92.1825V41.7197C92.1825 44.7747 91.3685 47.1263 89.7405 48.7745C88.1326 50.4025 85.8714 51.2165 82.957 51.2165ZM109.467 50.915L103.738 42.8955L98.0705 50.915H93.6085L101.447 40.1519L94.0306 29.8109H98.4624L103.859 37.3179L109.195 29.8109H113.446L106.06 40.0012L113.989 50.915H109.467Z" fill="white"/>
<path d="M145.222 38.7472L121.972 25.3494" stroke="url(#paint0_linear)" stroke-width="4.52813" stroke-linecap="round"/>
<path d="M122.068 52.3789L145.339 38.9434" stroke="url(#paint1_linear)" stroke-width="4.52813" stroke-linecap="round"/>
<path d="M122.068 52.3787L122.078 40.4089" stroke="url(#paint2_linear)" stroke-width="4.52813" stroke-linecap="round"/>
</g>
<defs>
<linearGradient id="paint0_linear" x1="121.915" y1="25.2507" x2="145.221" y2="39.2121" gradientUnits="userSpaceOnUse">
<stop/>
<stop offset="1" stop-color="#1C69FF"/>
</linearGradient>
<linearGradient id="paint1_linear" x1="115.707" y1="42.5173" x2="131.454" y2="17.9142" gradientUnits="userSpaceOnUse">
<stop stop-color="#D400F7"/>
<stop offset="0.997707" stop-color="#115DD0"/>
</linearGradient>
<linearGradient id="paint2_linear" x1="120.125" y1="37.9763" x2="124.828" y2="53.9413" gradientUnits="userSpaceOnUse">
<stop/>
<stop offset="1" stop-color="#E22FFF"/>
</linearGradient>
<clipPath id="clip0">
<rect width="165.321" height="70.1001" fill="white" transform="translate(0.5 0.450195)"/>
</clipPath>
</defs>
</svg>
